svgs/regular/align-center.svg

<svg xmlns="http://www.w3.org/2000/svg" viewBox="0 0 448 512"><!-- Font Awesome Pro 6.0.0-alpha2 by @fontawesome - https://fontawesome.com License - https://fontawesome.com/license (Commercial License) --><path d="M120 88H328C341.255 88 352 77.255 352 64V64C352 50.745 341.255 40 328 40H120C106.745 40 96 50.745 96 64V64C96 77.255 106.745 88 120 88ZM424 424H24C10.745 424 0 434.745 0 448V448C0 461.255 10.745 472 24 472H424C437.255 472 448 461.255 448 448V448C448 434.745 437.255 424 424 424ZM328 344C341.255 344 352 333.255 352 320V320C352 306.745 341.255 296 328 296H120C106.745 296 96 306.745 96 320V320C96 333.255 106.745 344 120 344H328ZM424 168H24C10.745 168 0 178.745 0 192V192C0 205.255 10.745 216 24 216H424C437.255 216 448 205.255 448 192V192C448 178.745 437.255 168 424 168Z"/></svg>

<svg xmlns="http://www.w3.org/2000/svg" viewBox="0 0 448 512"><!--! Font Awesome Pro 6.4.0 by @fontawesome - https://fontawesome.com License - https://fontawesome.com/license (Commercial License) Copyright 2023 Fonticons, Inc. --><path d="M120 40c-13.3 0-24 10.7-24 24s10.7 24 24 24H328c13.3 0 24-10.7 24-24s-10.7-24-24-24H120zM24 168c-13.3 0-24 10.7-24 24s10.7 24 24 24H424c13.3 0 24-10.7 24-24s-10.7-24-24-24H24zM96 320c0 13.3 10.7 24 24 24H328c13.3 0 24-10.7 24-24s-10.7-24-24-24H120c-13.3 0-24 10.7-24 24zM24 424c-13.3 0-24 10.7-24 24s10.7 24 24 24H424c13.3 0 24-10.7 24-24s-10.7-24-24-24H24z"/></svg>
